!!!OTL: 419e. Das Muehlrad. / [Muellers Abschied.]
!!!ARE: Europa, Mitteleuropa, Deutschland, Westfalen
!!!SCT: E0419D
!!!TXL: @@DE
!!!YEM: Copyright 1995, estate of Helmut Schaffrath.
**kern
*ICvox
*M6/8
*k[f#]
*G:
!LO:TX:a:t=Da droeben auf jenem Berge
!LO:TX:a:t=Handſchriftl. aus Thüringen 1804.
{8d
=1
8.g
16f#
8g
8.gL
16f#J
8g
=2
(4f#
8e)
4d}
{8d
=3
4g
8g
4a
8a
=4
[4.b
8b]
8r}
{16bL
16ccJ
=5
8.ddL
16eeJ
8dd
8dd
8ee
8dd
=6
(4dd
8cc)
4cc}
{8cc
=7
8.bL
16ccJ
8b
8a
8g
8a
=8
[4.g
8g]
8r}
==
!!!AGN: Liebes - Lied, Abschied
!!!ONB: ESAC (Essen Associative Code) Database: ERK1
!!!AMT: compound duple
!!!AIN: vox
!!!EED: Helmut Schaffrath
!!!EEV: 1.0
!!!GTL: Liebeslieder [Alte (aus dem 13. bis 17. Jahrh.) mit ihrem jungen Nachwuchs]
!!!URL-scan: https://rosdok.uni-rostock.de/mcrviewer/recordIdentifier/rosdok_ppn745177662/iview2/phys_0240.iview2?x=-778.7160746633431&y=1796.4874085868942&scale=0.3980252647138593&rotation=0&layout=singlePageLayout
!!!ENC: Anna Maria Matuszewska
!!!EEV: 2024/09/12
*-
